.icons/oomox-ad/24x24/apps/synfig_icon.svg

<svg xmlns="http://www.w3.org/2000/svg" width="24" height="24" version="1.1">
 <path style="opacity:0.2" d="m 12.028753,2.5002424 c -0.07061,-0.002 -0.138825,0.023371 -0.187705,0.069723 -0.705301,0.668871 -1.422129,1.4193652 -2.0699833,2.1337139 -7.532e-4,8.97e-4 -0.0015,0.0018 -0.00223,0.0027 -1.5964733,1.8094235 -2.8099314,3.6685968 -3.6893218,5.6592227 -0.8191818,1.854339 -1.2981342,4.058339 -1.734047,6.395122 -0.09546,0.511716 -0.1919229,1.131788 -0.2584699,1.630748 -0.03326,0.249478 -0.059109,0.468357 -0.073743,0.630231 -0.00729,0.08094 -0.011565,0.147339 -0.012662,0.20105 -5.412e-4,0.02687 -6.27e-4,0.04925 0.00223,0.07717 0.00143,0.01395 0.00278,0.02887 0.010431,0.05415 0.00763,0.02528 0.00141,0.07664 0.1132208,0.139451 0.060337,0.0339 0.068456,0.02721 0.083426,0.03046 0.014968,0.0033 0.02657,0.0056 0.038734,0.0074 0.02434,0.0036 0.050189,0.0059 0.0797,0.0088 0.059025,0.0057 0.1321149,0.01104 0.2093089,0.01489 2.5064155,0.283086 5.3914035,1.307071 7.1104893,2.743997 0.05358,0.04441 0.09807,0.08094 0.133332,0.108305 0.01765,0.01361 0.03254,0.02483 0.04841,0.03587 0.0079,0.0055 0.01561,0.01115 0.02906,0.01897 0.0067,0.0038 0.01493,0.0083 0.02978,0.01493 0.01485,0.0064 0.02963,0.01928 0.09832,0.02234 0.08229,0.0036 0.09936,-0.01266 0.116199,-0.01961 0.01682,-0.0068 0.02547,-0.01153 0.03277,-0.0155 0.01459,-0.0081 0.02279,-0.0138 0.03129,-0.01962 0.01697,-0.01153 0.03235,-0.02332 0.05139,-0.03791 0.03812,-0.02914 0.0868,-0.06863 0.14525,-0.116449 2.157242,-1.525819 5.10613,-2.578461 7.246782,-2.754979 l 0.160896,-0.01217 c 0.129337,-0.0098 0.22879,-0.108142 0.228672,-0.226098 v -0.08594 c 1.5e-5,-0.179231 -0.04691,-0.549409 -0.110219,-1.007964 -0.06332,-0.45855 -0.144301,-0.980474 -0.217511,-1.376891 -0.435397,-2.357794 -0.930408,-4.618243 -1.760118,-6.495981 -0.747453,-1.6915797 -1.817535,-3.4003278 -3.096406,-4.9470767 -0.0029,-0.0035 -0.0059,-0.0068 -0.0089,-0.01017 -0.860834,-0.926059 -1.693509,-1.8980454 -2.601822,-2.7991291 -0.04545,-0.045272 -0.109134,-0.071893 -0.176534,-0.073783 z"/>
 <path style="fill:#0278dc" d="m 12.028452,2.0005985 c -0.07061,-0.002 -0.138819,0.02337 -0.187698,0.06972 -0.705274,0.668846 -1.422075,1.419313 -2.0699056,2.133635 -7.532e-4,8.97e-4 -0.0015,0.0018 -0.00223,0.0027 C 8.172205,6.0160095 6.9587923,7.8751132 6.0794348,9.8656649 5.2602836,11.719929 4.7813492,13.923845 4.3454527,16.260541 c -0.095457,0.511698 -0.1919157,1.131747 -0.2584602,1.630688 -0.033259,0.249469 -0.059106,0.468339 -0.07374,0.630207 -0.00729,0.08094 -0.011565,0.147333 -0.012661,0.201043 -5.412e-4,0.02687 -6.27e-4,0.04925 0.00223,0.07717 0.00143,0.01395 0.00278,0.02887 0.010431,0.05415 0.00763,0.02528 0.00141,0.07664 0.1132166,0.139446 0.060335,0.0339 0.068453,0.02721 0.083423,0.03046 0.014967,0.0033 0.026569,0.0056 0.038732,0.0075 0.024339,0.0036 0.050187,0.0059 0.079697,0.0088 0.059023,0.0057 0.13211,0.01104 0.2093011,0.01489 2.5063216,0.283075 5.3912016,1.307021 7.1102228,2.743895 0.05358,0.04441 0.09807,0.08094 0.133327,0.108299 0.01765,0.01361 0.03254,0.02483 0.04841,0.03587 0.0079,0.0055 0.01561,0.01115 0.02906,0.01897 0.0067,0.0038 0.01493,0.0083 0.02978,0.01493 0.01485,0.0064 0.02963,0.01928 0.09832,0.02234 0.08229,0.0036 0.09936,-0.01266 0.116195,-0.01961 0.01682,-0.0068 0.02547,-0.01153 0.03277,-0.0155 0.01459,-0.0081 0.02279,-0.01379 0.03129,-0.01961 0.01697,-0.01153 0.03235,-0.02332 0.05139,-0.03791 0.03812,-0.02914 0.0868,-0.06864 0.145242,-0.116445 2.157162,-1.525755 5.105939,-2.578358 7.246511,-2.754869 l 0.16089,-0.01217 c 0.129332,-0.0098 0.228781,-0.108137 0.228663,-0.22609 v -0.08594 c 2e-6,-0.179224 -0.04692,-0.549388 -0.110226,-1.007925 -0.06332,-0.458616 -0.144297,-0.980521 -0.217504,-1.376923 -0.435381,-2.357706 -0.930373,-4.618071 -1.760052,-6.4957368 -0.747425,-1.6915168 -1.817467,-3.4002007 -3.09629,-4.9468917 -0.0029,-0.0035 -0.0059,-0.0068 -0.0089,-0.01017 -0.860814,-0.926029 -1.693458,-1.89798 -2.601736,-2.799029 -0.04545,-0.04527 -0.10913,-0.07189 -0.176527,-0.07378 z"/>
 <path style="fill:#48a0f8;fill-rule:evenodd" d="m 12.029484,1.9999915 c -0.07061,-0.002 -0.138615,0.02396 -0.187495,0.07031 -0.597249,0.566402 -1.194822,1.190738 -1.759721,1.802688 L 12.006047,14.821928 13.912248,3.8905675 c -0.0074,-0.0082 -0.01605,-0.01527 -0.02344,-0.02344 -0.548565,-0.606333 -1.100054,-1.214073 -1.683548,-1.792922 -0.04545,-0.04527 -0.10838,-0.07232 -0.175777,-0.07422 z M 12.006044,14.821928 17.861363,9.7576051 C 17.459822,8.8682125 16.963315,7.9778285 16.400466,7.1072824 Z m 0,0 7.146302,-1.00974 c -0.162337,-0.708574 -0.34225,-1.394936 -0.544907,-2.054635 z m 0,0 7.866986,4.156144 c 0.07134,-0.04017 0.127033,-0.100586 0.126952,-0.181636 v -0.08594 c 2e-6,-0.179225 -0.04607,-0.54925 -0.109372,-1.007788 -0.06332,-0.458532 -0.145538,-0.980514 -0.218745,-1.376917 -0.01912,-0.103546 -0.04117,-0.203487 -0.06055,-0.306633 z m 0,0 2.861255,5.554545 c 0.770936,-0.350189 1.558245,-0.640112 2.326112,-0.863259 z m 0,0 -1.042941,6.468585 c 0.243414,0.163396 0.47442,0.33134 0.685529,0.507799 0.05358,0.04441 0.09756,0.08201 0.132809,0.109372 0.01765,0.01361 0.03295,0.02412 0.04883,0.03516 0.0079,0.0055 0.01584,0.01171 0.0293,0.01953 0.0067,0.0038 0.01444,0.0071 0.0293,0.01367 0.01485,0.0064 0.02897,0.02038 0.09766,0.02344 0.08229,0.0036 0.100351,-0.01258 0.117185,-0.01953 0.01682,-0.0068 0.02591,-0.01166 0.0332,-0.01563 0.01459,-0.0081 0.02275,-0.01371 0.03125,-0.01953 0.01697,-0.01153 0.03174,-0.02447 0.05078,-0.03906 0.03812,-0.02914 0.08609,-0.06742 0.144527,-0.115231 0.234089,-0.165571 0.481715,-0.322639 0.732403,-0.476551 z m 0,0 -4.9705757,4.73816 c 0.7115936,0.200062 1.4109408,0.443284 2.0722137,0.732403 z m 0,0 -7.611133,1.18747 c -0.01604,0.08493 -0.032916,0.166656 -0.048827,0.251947 -0.095457,0.511697 -0.1932145,1.131877 -0.2597589,1.630817 -0.033259,0.249468 -0.057629,0.467022 -0.072264,0.62889 -0.00729,0.08094 -0.012576,0.147457 -0.013672,0.201166 -5.412e-4,0.02687 -9.038e-4,0.0502 0.00195,0.07813 0.00143,0.01395 0.00407,0.02746 0.011719,0.05273 0.00598,0.01979 0.020002,0.05878 0.072264,0.103513 z m 0,0 -6.6092055,-3.064375 c -0.1943274,0.632416 -0.3668192,1.291523 -0.5234221,1.970653 z m 0,0 L 7.625299,7.0643147 C 7.0934198,7.8820716 6.6324692,8.718793 6.2327566,9.5779222 Z"/>
 <path style="opacity:0.2;fill:#ffffff" d="m 12.029465,2.0005453 c -0.07061,-0.002 -0.138616,0.02396 -0.187495,0.07031 -0.705274,0.668846 -1.42243,1.418436 -2.07026,2.132758 -7.533e-4,8.96e-4 -0.00122,0.003 -0.00195,0.0039 -1.5964165,1.809353 -2.8100042,3.667503 -3.6893618,5.6580548 -0.8191511,1.8542639 -1.298434,4.0596239 -1.7343306,6.3963209 -0.095457,0.511697 -0.1932145,1.131877 -0.2597589,1.630817 -0.033259,0.249468 -0.057629,0.467022 -0.072264,0.62889 -0.00729,0.08094 -0.012576,0.147457 -0.013672,0.201166 -5.412e-4,0.02687 -9.038e-4,0.0502 0.00195,0.07813 0.00143,0.01395 0.00407,0.02746 0.011719,0.05273 0.00302,0.01001 0.00681,0.02765 0.013672,0.04492 0.015185,-0.147395 0.031817,-0.30697 0.058593,-0.5078 0.066543,-0.498935 0.1643009,-1.11716 0.2597579,-1.628858 0.4358966,-2.336696 0.9151795,-4.542057 1.7343306,-6.396321 0.8793576,-1.9905515 2.0929453,-3.8487017 3.6893586,-5.6580577 7.333e-4,-9.03e-4 0.0012,-0.003 0.00195,-0.0039 0.6478302,-0.714322 1.3649862,-1.463912 2.0702602,-2.132758 0.04888,-0.04635 0.116888,-0.07228 0.187495,-0.07031 0.0674,0.0019 0.130327,0.02895 0.175776,0.07422 0.90828,0.901049 1.740682,1.872727 2.601497,2.798756 0.0031,0.0033 0.0069,0.0063 0.0098,0.0098 1.278823,1.5466911 2.348198,3.2556222 3.095623,4.9471387 0.829679,1.877667 1.324339,4.138222 1.759721,6.495927 0.07321,0.396403 0.155422,0.918385 0.218745,1.376918 0.04258,0.30839 0.05575,0.480476 0.07422,0.677717 0.0132,-0.02771 0.03519,-0.05202 0.03516,-0.08398 v -0.08594 c 2e-6,-0.179225 -0.04607,-0.54925 -0.109372,-1.007787 -0.06332,-0.458529 -0.145539,-0.980511 -0.218745,-1.376914 -0.435382,-2.357706 -0.930042,-4.618261 -1.759721,-6.4959273 -0.747425,-1.6915167 -1.8168,-3.4004474 -3.095623,-4.9471384 -0.0029,-0.0035 -0.0067,-0.0064 -0.0098,-0.0098 -0.860814,-0.926025 -1.693216,-1.897703 -2.601496,-2.798752 -0.04545,-0.04527 -0.10838,-0.07232 -0.175776,-0.07422 z"/>
</svg>

<svg xmlns="http://www.w3.org/2000/svg" width="24" height="24" version="1.1" viewBox="0 0 6.35 6.35">
 <path style="opacity:0.2" d="m 3.1825515,0.66157968 c -0.018682,-5.2e-4 -0.03673,0.006184 -0.049663,0.0184478 C 2.94628,0.85699746 2.7566215,1.0555635 2.585212,1.2445661 c -1.993e-4,2.372e-4 -3.96e-4,4.762e-4 -5.9e-4,7.15e-4 C 2.1622268,1.7240189 1.8411698,2.2159193 1.6085005,2.7425996 1.3917612,3.2332197 1.2650399,3.8163542 1.149706,4.4346208 1.124449,4.570011 1.098927,4.7340698 1.08132,4.8660846 1.07252,4.9320916 1.065681,4.9900025 1.061809,5.0328312 c -0.00193,0.021415 -0.00306,0.038983 -0.00335,0.053194 -1.432e-4,0.00711 -1.659e-4,0.01303 5.9e-4,0.020418 3.786e-4,0.00369 7.35e-4,0.00764 0.00276,0.014328 0.00202,0.00669 3.725e-4,0.020279 0.029956,0.036896 0.015964,0.00897 0.018112,0.0072 0.022073,0.00806 0.00396,8.65e-4 0.00703,0.00149 0.010248,0.00197 0.00644,9.55e-4 0.013279,0.00157 0.021087,0.00232 0.015617,0.00151 0.034955,0.00292 0.055379,0.00394 0.6631479,0.074899 1.4264586,0.345825 1.8812945,0.7260075 0.014176,0.01175 0.025949,0.021415 0.035277,0.028655 0.00467,0.0036 0.00861,0.00657 0.01281,0.00949 0.0021,0.00145 0.00413,0.00295 0.00769,0.00502 0.00178,0.001 0.00395,0.0022 0.00788,0.00395 0.00393,0.0017 0.00784,0.0051 0.026014,0.00591 0.021772,9.499e-4 0.02629,-0.00335 0.030744,-0.00519 0.00445,-0.0018 0.00674,-0.00305 0.00867,-0.0041 0.00386,-0.00215 0.00603,-0.00365 0.00828,-0.00519 0.00449,-0.00305 0.00856,-0.00617 0.013598,-0.01003 0.010086,-0.00771 0.022967,-0.01816 0.03843,-0.03081 C 3.8420033,5.49397 4.6222206,5.2154616 5.1885947,5.1687585 l 0.04257,-0.00322 c 0.03422,-0.0026 0.060533,-0.028612 0.060502,-0.059821 v -0.022738 c 4e-7,-0.047421 -0.012415,-0.1453628 -0.029165,-0.2666872 C 5.2457471,4.6949689 5.2243223,4.5568782 5.2049526,4.4519939 5.0897549,3.8281684 4.958785,3.2300982 4.7392602,2.7332861 4.5414988,2.2857275 4.2583763,1.8336266 3.9200125,1.4243874 c -7.6e-4,-9.2e-4 -0.00155,-0.00181 -0.00236,-0.00269 C 3.6898896,1.1766793 3.4695804,0.9195109 3.2292587,0.68110211 3.2172333,0.66912454 3.200384,0.66208167 3.1825515,0.66157968 Z"/>
 <path style="fill:#0278dc" d="m 3.1825515,0.52932736 c -0.018682,-5.2e-4 -0.03673,0.006184 -0.049663,0.0184478 C 2.94628,0.72474514 2.7566215,0.92331129 2.585212,1.1123139 c -1.993e-4,2.372e-4 -3.96e-4,4.762e-4 -5.9e-4,7.15e-4 C 2.1622268,1.5917667 1.8411698,2.0836671 1.6085005,2.6103474 1.3917612,3.1009674 1.2650399,3.6841019 1.149706,4.3023685 1.124449,4.4377587 1.098927,4.6018175 1.08132,4.7338323 1.07252,4.7998393 1.065681,4.8577502 1.061809,4.9005789 c -0.00193,0.021415 -0.00306,0.038983 -0.00335,0.053194 -1.432e-4,0.00711 -1.659e-4,0.01303 5.9e-4,0.020418 3.786e-4,0.00369 7.35e-4,0.00764 0.00276,0.014328 0.00202,0.00669 3.725e-4,0.020279 0.029956,0.036896 0.015964,0.00897 0.018112,0.0072 0.022073,0.00806 0.00396,8.65e-4 0.00703,0.00149 0.010248,0.00197 0.00644,9.55e-4 0.013279,0.00157 0.021087,0.00232 0.015617,0.00151 0.034955,0.00292 0.055379,0.00394 0.6631479,0.074899 1.4264586,0.345825 1.8812945,0.7260075 0.014176,0.01175 0.025949,0.021415 0.035277,0.028655 0.00467,0.0036 0.00861,0.00657 0.01281,0.00949 0.0021,0.00145 0.00413,0.00295 0.00769,0.00502 0.00178,0.001 0.00395,0.0022 0.00788,0.00395 0.00393,0.0017 0.00784,0.0051 0.026014,0.00591 0.021772,9.499e-4 0.02629,-0.00335 0.030744,-0.00519 0.00445,-0.0018 0.00674,-0.00305 0.00867,-0.0041 0.00386,-0.00215 0.00603,-0.00365 0.00828,-0.00519 0.00449,-0.00305 0.00856,-0.00617 0.013598,-0.01003 0.010086,-0.00771 0.022967,-0.01816 0.03843,-0.03081 C 3.8420033,5.3617177 4.6222206,5.0832093 5.1885947,5.0365062 l 0.04257,-0.00322 c 0.03422,-0.0026 0.060533,-0.028612 0.060502,-0.059821 V 4.9507269 C 5.2916671,4.903306 5.2792517,4.8053641 5.2625019,4.6840397 5.2457471,4.5627166 5.2243223,4.4246259 5.2049526,4.3197416 5.0897549,3.6959161 4.958785,3.0978459 4.7392602,2.6010339 4.5414988,2.1534753 4.2583763,1.7013744 3.9200125,1.2921352 c -7.6e-4,-9.2e-4 -0.00155,-0.00181 -0.00236,-0.00269 C 3.6898896,1.0444271 3.4695804,0.78725858 3.2292587,0.54884979 3.2172333,0.53687222 3.200384,0.52982935 3.1825515,0.52932736 Z"/>
 <path style="fill:#48a0f8;fill-rule:evenodd" transform="scale(0.26458333)" d="M 12.029297 2 C 11.958688 1.998035 11.890678 2.023963 11.841797 2.0703125 C 11.244533 2.6367289 10.646944 3.2610815 10.082031 3.8730469 L 12.005859 14.822266 L 13.912109 3.890625 C 13.904721 3.8824573 13.896061 3.875355 13.888672 3.8671875 C 13.34009 3.2608382 12.788587 2.653083 12.205078 2.0742188 C 12.159628 2.0289492 12.096695 2.0018973 12.029297 2 z M 12.005859 14.822266 L 17.861328 9.7578125 C 17.459774 8.8683971 16.963254 7.9779903 16.400391 7.1074219 L 12.005859 14.822266 z M 12.005859 14.822266 L 19.152344 13.8125 C 18.990002 13.103908 18.810085 12.417528 18.607422 11.757812 L 12.005859 14.822266 z M 12.005859 14.822266 L 19.873047 18.978516 C 19.944385 18.938349 20.000081 18.877928 20 18.796875 L 20 18.710938 C 20.000002 18.531709 19.953931 18.161674 19.890625 17.703125 C 19.8273 17.244581 19.745083 16.722585 19.671875 16.326172 C 19.652753 16.222624 19.630703 16.12268 19.611328 16.019531 L 12.005859 14.822266 z M 12.005859 14.822266 L 14.867188 20.376953 C 15.638143 20.026755 16.425472 19.736824 17.193359 19.513672 L 12.005859 14.822266 z M 12.005859 14.822266 L 10.962891 21.291016 C 11.206312 21.454416 11.437323 21.622365 11.648438 21.798828 C 11.702016 21.843238 11.745995 21.880839 11.78125 21.908203 C 11.7989 21.921809 11.814204 21.932323 11.830078 21.943359 C 11.838015 21.94884 11.84592 21.955067 11.859375 21.962891 C 11.866103 21.96667 11.873818 21.969948 11.888672 21.976562 C 11.903525 21.982988 11.917639 21.996939 11.986328 22 C 12.068616 22.00359 12.086682 21.987423 12.103516 21.980469 C 12.120335 21.973666 12.129424 21.968812 12.136719 21.964844 C 12.151308 21.956718 12.159465 21.951133 12.167969 21.945312 C 12.184939 21.933785 12.199709 21.920839 12.21875 21.90625 C 12.25687 21.87711 12.304838 21.838827 12.363281 21.791016 C 12.597376 21.625441 12.845008 21.468369 13.095703 21.314453 L 12.005859 14.822266 z M 12.005859 14.822266 L 7.0351562 19.560547 C 7.746767 19.760614 8.4461321 20.003842 9.1074219 20.292969 L 12.005859 14.822266 z M 12.005859 14.822266 L 4.3945312 16.009766 C 4.3784912 16.094694 4.361614 16.176426 4.3457031 16.261719 C 4.2502436 16.77343 4.1524836 17.393625 4.0859375 17.892578 C 4.0526777 18.142053 4.0283062 18.359612 4.0136719 18.521484 C 4.0063774 18.602423 4.0010961 18.668945 4 18.722656 C 3.9994588 18.749529 3.9990962 18.772858 4.0019531 18.800781 C 4.0033841 18.814728 4.0060183 18.828238 4.0136719 18.853516 C 4.0196485 18.873309 4.0336743 18.912298 4.0859375 18.957031 L 12.005859 14.822266 z M 12.005859 14.822266 L 5.3964844 11.757812 C 5.20215 12.390244 5.0296538 13.049368 4.8730469 13.728516 L 12.005859 14.822266 z M 12.005859 14.822266 L 7.625 7.0644531 C 7.0931071 7.882231 6.6321447 8.7189738 6.2324219 9.578125 L 12.005859 14.822266 z"/>
 <path style="opacity:0.2;fill:#ffffff" transform="scale(0.26458333)" d="M 12.029297 2 C 11.958688 1.9980346 11.890678 2.0239611 11.841797 2.0703125 C 11.136505 2.7391754 10.419331 3.4887844 9.7714844 4.203125 C 9.7707311 4.2040215 9.7702645 4.2061287 9.7695312 4.2070312 C 8.173077 6.016434 6.9594582 7.8746317 6.0800781 9.8652344 C 5.260906 11.719546 4.7816108 13.924963 4.3457031 16.261719 C 4.2502436 16.77343 4.1524836 17.393625 4.0859375 17.892578 C 4.0526777 18.142053 4.0283062 18.359612 4.0136719 18.521484 C 4.0063774 18.602423 4.0010961 18.668945 4 18.722656 C 3.9994588 18.749529 3.9990962 18.772858 4.0019531 18.800781 C 4.0033841 18.814728 4.0060183 18.828238 4.0136719 18.853516 C 4.0166943 18.863525 4.0204827 18.881162 4.0273438 18.898438 C 4.0425286 18.751039 4.0591623 18.59146 4.0859375 18.390625 C 4.1524836 17.891671 4.2502436 17.27343 4.3457031 16.761719 C 4.7816108 14.424963 5.260906 12.219546 6.0800781 10.365234 C 6.9594582 8.3746317 8.173077 6.516434 9.7695312 4.7070312 C 9.7702645 4.7061287 9.7707311 4.7040215 9.7714844 4.703125 C 10.419331 3.9887845 11.136505 3.2391754 11.841797 2.5703125 C 11.890678 2.5239611 11.958688 2.4980346 12.029297 2.5 C 12.096695 2.5018973 12.159628 2.5289492 12.205078 2.5742188 C 13.113381 3.4752913 13.945804 4.4469942 14.806641 5.3730469 C 14.809702 5.3763729 14.813534 5.3793353 14.816406 5.3828125 C 16.095262 6.9295433 17.164665 8.6385181 17.912109 10.330078 C 18.741809 12.207793 19.236482 14.468406 19.671875 16.826172 C 19.745083 17.222585 19.827301 17.74458 19.890625 18.203125 C 19.933202 18.511523 19.946379 18.683613 19.964844 18.880859 C 19.978049 18.85315 20.000032 18.828839 20 18.796875 L 20 18.710938 C 20.000002 18.531709 19.953931 18.161674 19.890625 17.703125 C 19.8273 17.244581 19.745083 16.722585 19.671875 16.326172 C 19.236482 13.968406 18.741809 11.707793 17.912109 9.8300781 C 17.164665 8.1385181 16.095262 6.4295433 14.816406 4.8828125 C 14.813534 4.8793353 14.809702 4.8763729 14.806641 4.8730469 C 13.945804 3.9469942 13.113381 2.9752913 12.205078 2.0742188 C 12.159628 2.0289492 12.096695 2.0018973 12.029297 2 z"/>
</svg>
